!!!!SEGMENT: pl-sa--l-1643--100_anonim--de-stella-sol-oriturus.krn
!!!cenid: 16xx:1458
!!!COM: Anonim
!!!COM-rismID:
!!!CDT:
!!!CNT:
!!!OTL: De stella sol oriturus
!!!PDT:
!!!AGN: Sacred
!!!SMS-siglum: PL-SA
!!!SMS-shelfmark: L 1643
!!!SMS-shelfwork: 100 W
!!!SMS-variant:
!!!SMS-altvar:
!!!NIFC-rismSourceID: 1001063731
!!!NIFC-islandoraID:
!!!URL-pdf-islandora:
!!!URL-scan:
!!!ONB-nifc: UWAGA: 8 ksiąg. Primi chori: 1mus Cantus (x), C 2dus (172-173), C 3tius (x), Bassus (x); Secondi chori: Primus Cantus (x), C 2dus (x), Altus (x), Bassus (x). UWAGA: Nie dodawać pustych linii, chyba że w rękopisie pojawiają się dodatkowe oznaczenia dotyczące pełnej obsady (a 4, a 8 itp.)
!!!AIN: 1 empty
!!!key:
**kern	**text	**text	**text
*group1	*	*	*
*Iempty	*	*	*
*I"Cantus 2dus Primi Chori	*	*	*
*I'[Coro 1 C 2]	*	*	*
*clefC1	*	*	*
*k[]	*	*	*
*c:	*	*	*
*M2/2	*	*	*
*met(C|)	*	*	*
=1-	=1-	=1-	=1-
!LO:TX:a:B:t=Prestissimo	!	!	!
*lig	*	*	*
1cc	De	An-	Ex
=2-	=2-	=2-	=2-
1b	.	.	.
*Xlig	*	*	*
=3-	=3-	=3-	=3-
2cc\	stel-	-na	qua
2g/	-la	fi-	cae-
=4-	=4-	=4-	=4-
2dd\	ſol	-li-	-lo-
1cc\	o-	-a	-rum
=5-	=5-	=5-	=5-
2g/	-ri-	a-	.
=6-	=6-	=6-	=6-
1g	-tu-	-bra-	.
=7-	=7-	=7-	=7-
1g;>	-rus	-he	.
=8||-	=8||-	=8||-	=8||-
*M3/2	*	*	*
1.r	.	.	.
=9-	=9-	=9-	=9-
2cc\	Stel-	Quae	Mun-
(>4g\	-la	f[ul]-	-di
4a\)	.	.	.
2b\	mat-	-sit	.
=10-	=10-	=10-	=10-
2cc\	-rem	.	quae
2r	.	.	.
2r	.	.	.
=11-	=11-	=11-	=11-
2cc\	stel-	que	mun-
(>4cc\	-la	ful-	-di
4cc\)	mat-	.	.
2b\	-rem	-sit	quae
=12||-	=12||-	=12||-	=12||-
*M2/2	*	*	*
*met(C|)	*	*	*
2cc\	pro-	Aa-	Cle-
1cc\	-fert	-ron	-mens
=13-	=13-	=13-	=13-
2.cc\	.	.	.
=14-	=14-	=14-	=14-
8b\L	.	ex	do-
8a\J	.	.	.
2b\	pu-	stir-	-mi-
=15-	=15-	=15-	=15-
1cc;<	-rus	-pe	-na
!LO:PB:g=original	!	!	!
=16-	=16-	=16-	=16-
1b	Ut	Qua-	Ut
=17-	=17-	=17-	=17-
2.cc\	ra-	-si	he-
8b\L	.	.	.
8a\J	.	.	.
=18-	=18-	=18-	=18-
2.b\	-di-	ste-	-re-
4g/	-um	-la	-ses
=19-	=19-	=19-	=19-
4a\	lu-	ma-	in
4b\	.	.	.
2.cc\	-cis	-tu-	te-
=20-	=20-	=20-	=20-
8b\L	no-	-ti-	-ri-
8a\J	.	.	.
2b\	-uae;	-na;	-mat,
=21-	=21-	=21-	=21-
1cc;<	.	.	.
=22||-	=22||-	=22||-	=22||-
*M3/2	*	*	*
00.r	.	.	.
=23-	=23-	=23-	=23-
2cc\	Sum	O	Au-
2a\	me	glo-	-to-
2cc\	de-	-ri-	-ra
=24-	=24-	=24-	=24-
1ee	-us	-o-	lu-
2dd\	cle-	-sa	-cis
=25-	=25-	=25-	=25-
1cc	-men-	do-	ru-
2cc\	-ti-	-mi-	-ti-
=26-	=26-	=26-	=26-
1.dd	-a;	-na;	-lat
=27||-	=27||-	=27||-	=27||-
*M2/2	*	*	*
*met(C|)	*	*	*
00r	.	.	.
=28-	=28-	=28-	=28-
2.ee\	De-	Glo-	Lu-
4dd\	.	-ri-	.
=29-	=29-	=29-	=29-
2cc\	-us	-o-	.
*custos:cc	*	*	*
!LO:PB:g=original	!	!	!
2cc\	cle-	-sa	-cis
=30-	=30-	=30-	=30-
2.dd\	-men-	do-	ru-
4dd\	-ti-	-mi-	-ti-
=31-	=31-	=31-	=31-
1cc	-ae;	-na;	-lat;
=32-	=32-	=32-	=32-
00r	.	.	.
=33-	=33-	=33-	=33-
1b	De-	glo-	lu-
=34-	=34-	=34-	=34-
!LO:TX:t=P:problem=za mało nut w stosunku do sylab (powinno być "glo-ri-o-sa")	!	!	!
2ee\	-us	-rio-	.
2dd\	cle-	-sa	-cis
=35-	=35-	=35-	=35-
1.dd	-men-	do-	ru-
=36-	=36-	=36-	=36-
2dd\	-ti-	-mi-	-ti-
=37-	=37-	=37-	=37-
0b;;	-ae;	-na;	-lat;
=-	=-	=-	=-
*-	*-	*-	*-
!!!RDF**kern: > = above
!!!RDF**kern: < = below
!!!ENC: Andrzej Gręziak
!!!END: 2021-10-30
!!!EED: Jędrzej Mróz
!!!ESR: 2021-11-04
